X: 1
T: the Last Time I Came Over the Moor
%R: air, march
S: PDF from Darlene Wigton 2019-3-2
Z: 2019 John Chambers <jc:trillian.mit.edu>
M: C
L: 1/8
K: D
(A>G) | F2 (ED) d3 e | {ef}f2 (ed) c2 (BA) | B3 A (F>EF) A | (B3 c) d2 (A>G) |
w: The* last time* I came o'er the* moor, I* left my love** be-hind* me, ye*
F2 (ED) d3 e | f2 (ed) c2 (BA) | (B>cd) e (fed) c | (B3 c) d2 :|
w: Pow'rs what* Pain do I en-*dure, when* soft** I-deas*** mind* me!
|: (ed) | c2 (BA) A3 f | (ec) (B>c) A3 F | A3 B (A>BA) F | A4 d3 A |
w: Soon* as the* rud-dy morn* dis-*play'd the beam-ing day** en-su-ing, I
(B>AB) d B2 (AF) | (AFA) B d3 e | (fe) (dB) (AB/c/d) G | (F2 TE2) D2 :|
w: met** be-times my* love-**ly Maid, in fit* re-*treats*** for woo-*ing.

%%sep 1 1 500

